lib/flags/la-laos.svg

<svg xmlns="http://www.w3.org/2000/svg" fill="none" aria-hidden="true" viewBox="0 0 42 30"><g id="Country=LA - Laos, Size=sm (36x24)" filter="url(#filter0_dd_91_26777)"><g clip-path="url(#clip0_91_26777)"><g id="flag"><mask id="mask0_91_26777" width="36" height="24" x="3" y="2" maskUnits="userSpaceOnUse" style="mask-type:alpha"><rect id="mask" width="36" height="24" x="3" y="2" fill="white"/></mask><g mask="url(#mask0_91_26777)"><g id="contents"><path id="bottom" fill="#E31D1C" fill-rule="evenodd" d="M3 18H39V26H3V18Z" clip-rule="evenodd"/><path id="middle" fill="#2E42A5" fill-rule="evenodd" d="M3 10H39V18H3V10Z" clip-rule="evenodd"/><path id="middle_2" fill="#E31D1C" fill-rule="evenodd" d="M3 2H39V10H3V2Z" clip-rule="evenodd"/><path id="Oval 27" fill="#F7FCFF" fill-rule="evenodd" d="M21 17.7402C23.33 17.7402 25.2188 16.0613 25.2188 13.9902C25.2188 11.9192 23.33 10.2402 21 10.2402C18.67 10.2402 16.7812 11.9192 16.7812 13.9902C16.7812 16.0613 18.67 17.7402 21 17.7402Z" clip-rule="evenodd"/></g></g></g></g></g><defs><filter id="filter0_dd_91_26777" width="42" height="30" x="0" y="0" color-interpolation-filters="sRGB" filterUnits="userSpaceOnUse"><feFlood flood-opacity="0" result="BackgroundImageFix"/><feColorMatrix in="SourceAlpha" result="hardAlpha" values="0 0 0 0 0 0 0 0 0 0 0 0 0 0 0 0 0 0 127 0"/><feOffset dy="1"/><feGaussianBlur stdDeviation="1"/><feColorMatrix values="0 0 0 0 0.0627451 0 0 0 0 0.0941176 0 0 0 0 0.156863 0 0 0 0.06 0"/><feBlend in2="BackgroundImageFix" result="effect1_dropShadow_91_26777"/><feColorMatrix in="SourceAlpha" result="hardAlpha" values="0 0 0 0 0 0 0 0 0 0 0 0 0 0 0 0 0 0 127 0"/><feOffset dy="1"/><feGaussianBlur stdDeviation="1.5"/><feColorMatrix values="0 0 0 0 0.0627451 0 0 0 0 0.0941176 0 0 0 0 0.156863 0 0 0 0.1 0"/><feBlend in2="effect1_dropShadow_91_26777" result="effect2_dropShadow_91_26777"/><feBlend in="SourceGraphic" in2="effect2_dropShadow_91_26777" result="shape"/></filter><clipPath id="clip0_91_26777"><rect width="36" height="24" x="3" y="2" fill="white" rx="2"/></clipPath></defs></svg>

<svg xmlns="http://www.w3.org/2000/svg" fill="none" aria-hidden="true" viewBox="0 0 42 30"><g filter="url(#a)"><g clip-path="url(#b)"><mask id="c" width="36" height="24" x="3" y="2" maskUnits="userSpaceOnUse" style="mask-type:alpha"><path fill="#fff" d="M3 2h36v24H3z"/></mask><g fill-rule="evenodd" clip-rule="evenodd" mask="url(#c)"><path fill="#E31D1C" d="M3 18h36v8H3v-8Z"/><path fill="#2E42A5" d="M3 10h36v8H3v-8Z"/><path fill="#E31D1C" d="M3 2h36v8H3V2Z"/><path fill="#F7FCFF" d="M21 17.74c2.33 0 4.219-1.679 4.219-3.75 0-2.07-1.889-3.75-4.219-3.75s-4.219 1.68-4.219 3.75c0 2.071 1.889 3.75 4.219 3.75Z"/></g></g></g><defs><clipPath id="b"><rect width="36" height="24" x="3" y="2" fill="#fff" rx="2"/></clipPath><filter id="a" width="42" height="30" x="0" y="0" color-interpolation-filters="sRGB" filterUnits="userSpaceOnUse"><feFlood flood-opacity="0" result="BackgroundImageFix"/><feColorMatrix in="SourceAlpha" result="hardAlpha" values="0 0 0 0 0 0 0 0 0 0 0 0 0 0 0 0 0 0 127 0"/><feOffset dy="1"/><feGaussianBlur stdDeviation="1"/><feColorMatrix values="0 0 0 0 0.0627451 0 0 0 0 0.0941176 0 0 0 0 0.156863 0 0 0 0.06 0"/><feBlend in2="BackgroundImageFix" result="effect1_dropShadow_91_26777"/><feColorMatrix in="SourceAlpha" result="hardAlpha" values="0 0 0 0 0 0 0 0 0 0 0 0 0 0 0 0 0 0 127 0"/><feOffset dy="1"/><feGaussianBlur stdDeviation="1.5"/><feColorMatrix values="0 0 0 0 0.0627451 0 0 0 0 0.0941176 0 0 0 0 0.156863 0 0 0 0.1 0"/><feBlend in2="effect1_dropShadow_91_26777" result="effect2_dropShadow_91_26777"/><feBlend in="SourceGraphic" in2="effect2_dropShadow_91_26777" result="shape"/></filter></defs></svg>
